svg/color/dows.svg

<?xml version="1.0" encoding="UTF-8" ?>
<!DOCTYPE svg PUBLIC "-//W3C//DTD SVG 1.1//EN" "http://www.w3.org/Graphics/SVG/1.1/DTD/svg11.dtd">
<svg width="250pt" height="250pt" viewBox="0 0 250 250" version="1.1" xmlns="http://www.w3.org/2000/svg">
<g id="#fefefeff">
<path fill="#fefefe" opacity="1.00" d=" M 0.00 0.00 L 250.00 0.00 L 250.00 114.85 C 248.47 107.92 247.65 100.84 245.84 93.97 C 240.58 73.89 230.16 55.24 215.98 40.09 C 196.91 19.87 171.04 6.04 143.46 2.13 C 134.71 1.16 125.82 -0.30 117.02 1.05 C 93.55 2.32 70.63 10.78 51.63 24.55 C 28.67 41.13 11.72 65.80 4.36 93.14 C 2.48 100.57 1.28 108.16 0.00 115.71 L 0.00 0.00 Z" />
<path fill="#fefefe" opacity="1.00" d=" M 112.43 20.68 C 117.98 20.67 123.51 19.20 129.02 20.17 C 152.35 20.77 175.26 29.85 193.05 44.91 C 216.90 64.84 231.32 95.84 230.47 126.99 C 230.57 154.36 218.66 181.15 199.49 200.50 C 184.20 215.46 164.44 226.04 143.29 229.60 C 134.10 231.04 124.68 232.32 115.42 230.76 C 95.87 229.02 76.80 221.69 61.22 209.73 C 43.52 196.50 30.34 177.39 23.92 156.27 C 16.32 131.55 18.31 104.00 29.46 80.66 C 44.37 48.14 76.94 24.78 112.43 20.68 M 64.26 61.66 C 62.82 70.16 62.69 79.22 66.07 87.30 C 69.02 95.94 75.51 102.81 82.70 108.16 C 91.57 114.15 102.45 115.29 112.53 118.05 C 130.05 122.10 147.55 126.30 165.04 130.51 C 176.12 132.87 184.68 142.37 187.90 152.96 C 188.26 154.35 189.13 155.49 190.21 156.41 C 191.38 146.17 196.07 136.45 195.57 126.00 C 195.65 110.33 185.95 95.31 172.06 88.25 C 163.90 84.01 154.61 83.07 145.86 80.65 C 124.83 75.57 103.74 70.72 82.73 65.56 C 76.53 64.39 70.56 62.26 64.26 61.66 M 73.65 125.41 C 73.70 129.94 73.13 134.46 73.48 138.99 C 74.96 149.53 81.06 159.35 90.13 165.03 C 96.80 169.51 104.92 170.63 112.57 172.48 C 129.57 176.75 146.69 180.55 163.68 184.86 C 171.36 187.36 177.16 194.24 178.91 202.06 C 179.88 197.01 181.63 192.10 182.40 186.98 C 182.81 182.39 182.92 177.74 182.34 173.17 C 179.85 161.03 170.75 150.50 159.12 146.23 C 153.97 144.27 148.44 143.74 143.20 142.13 C 120.00 136.62 96.81 131.08 73.65 125.41 Z" />
<path fill="#fefefe" opacity="1.00" d=" M 246.44 154.83 C 247.84 148.97 248.47 142.95 250.00 137.12 L 250.00 250.00 L 139.41 250.00 C 142.57 249.59 145.68 248.85 148.80 248.24 C 174.88 243.30 199.09 229.53 217.01 210.01 C 231.28 194.51 241.55 175.34 246.44 154.83 Z" />
<path fill="#fefefe" opacity="1.00" d=" M 0.00 137.86 C 1.65 143.68 2.23 149.73 3.74 155.58 C 9.31 178.56 21.76 199.81 38.95 216.04 C 52.39 229.17 69.11 238.78 86.92 244.63 C 93.29 246.85 100.12 247.41 106.39 250.00 L 0.00 250.00 L 0.00 137.86 Z" />
</g>
<g id="#040101ff">
<path fill="#040101" opacity="1.00" d=" M 51.63 24.55 C 70.63 10.78 93.55 2.32 117.02 1.05 C 125.82 -0.30 134.71 1.16 143.46 2.13 C 171.04 6.04 196.91 19.87 215.98 40.09 C 230.16 55.24 240.58 73.89 245.84 93.97 C 247.65 100.84 248.47 107.92 250.00 114.85 L 250.00 137.12 C 248.47 142.95 247.84 148.97 246.44 154.83 C 241.55 175.34 231.28 194.51 217.01 210.01 C 199.09 229.53 174.88 243.30 148.80 248.24 C 145.68 248.85 142.57 249.59 139.41 250.00 L 106.39 250.00 C 100.12 247.41 93.29 246.85 86.92 244.63 C 69.11 238.78 52.39 229.17 38.95 216.04 C 21.76 199.81 9.31 178.56 3.74 155.58 C 2.23 149.73 1.65 143.68 0.00 137.86 L 0.00 115.71 C 1.28 108.16 2.48 100.57 4.36 93.14 C 11.72 65.80 28.67 41.13 51.63 24.55 M 112.43 20.68 C 76.94 24.78 44.37 48.14 29.46 80.66 C 18.31 104.00 16.32 131.55 23.92 156.27 C 30.34 177.39 43.52 196.50 61.22 209.73 C 76.80 221.69 95.87 229.02 115.42 230.76 C 124.68 232.32 134.10 231.04 143.29 229.60 C 164.44 226.04 184.20 215.46 199.49 200.50 C 218.66 181.15 230.57 154.36 230.47 126.99 C 231.32 95.84 216.90 64.84 193.05 44.91 C 175.26 29.85 152.35 20.77 129.02 20.17 C 123.51 19.20 117.98 20.67 112.43 20.68 Z" />
<path fill="#040101" opacity="1.00" d=" M 64.26 61.66 C 70.56 62.26 76.53 64.39 82.73 65.56 C 103.74 70.72 124.83 75.57 145.86 80.65 C 154.61 83.07 163.90 84.01 172.06 88.25 C 185.95 95.31 195.65 110.33 195.57 126.00 C 196.07 136.45 191.38 146.17 190.21 156.41 C 189.13 155.49 188.26 154.35 187.90 152.96 C 184.68 142.37 176.12 132.87 165.04 130.51 C 147.55 126.30 130.05 122.10 112.53 118.05 C 102.45 115.29 91.57 114.15 82.70 108.16 C 75.51 102.81 69.02 95.94 66.07 87.30 C 62.69 79.22 62.82 70.16 64.26 61.66 Z" />
<path fill="#040101" opacity="1.00" d=" M 73.65 125.41 C 96.81 131.08 120.00 136.62 143.20 142.13 C 148.44 143.74 153.97 144.27 159.12 146.23 C 170.75 150.50 179.85 161.03 182.34 173.17 C 182.92 177.74 182.81 182.39 182.40 186.98 C 181.63 192.10 179.88 197.01 178.91 202.06 C 177.16 194.24 171.36 187.36 163.68 184.86 C 146.69 180.55 129.57 176.75 112.57 172.48 C 104.92 170.63 96.80 169.51 90.13 165.03 C 81.06 159.35 74.96 149.53 73.48 138.99 C 73.13 134.46 73.70 129.94 73.65 125.41 Z" />
</g>
</svg>

<?xml version="1.0" encoding="utf-8"?>
<!-- Generator: Adobe Illustrator 26.0.3, SVG Export Plug-In . SVG Version: 6.00 Build 0)  -->
<svg version="1.1" id="Layer_1" xmlns="http://www.w3.org/2000/svg" xmlns:xlink="http://www.w3.org/1999/xlink" x="0px" y="0px"
	 viewBox="0 0 250 250" style="enable-background:new 0 0 250 250;" xml:space="preserve">
<style type="text/css">
	.st0{fill:#FEFEFE;}
	.st1{fill:#040101;}
</style>
<g id="_x23_fefefeff">
	<path class="st0" d="M112.4,20.7c5.6,0,11.1-1.5,16.6-0.5c23.3,0.6,46.2,9.7,64,24.7c23.8,19.9,38.3,50.9,37.4,82.1
		c0.1,27.4-11.8,54.2-31,73.5c-15.3,15-35.1,25.5-56.2,29.1c-9.2,1.4-18.6,2.7-27.9,1.2c-19.5-1.7-38.6-9.1-54.2-21
		c-17.7-13.2-30.9-32.3-37.3-53.5c-7.6-24.7-5.6-52.3,5.5-75.6C44.4,48.1,76.9,24.8,112.4,20.7 M64.3,61.7
		c-1.4,8.5-1.6,17.6,1.8,25.6c2.9,8.6,9.4,15.5,16.6,20.9c8.9,6,19.8,7.1,29.8,9.9c17.5,4,35,8.2,52.5,12.5
		c11.1,2.4,19.6,11.9,22.9,22.5c0.4,1.4,1.2,2.5,2.3,3.4c1.2-10.2,5.9-20,5.4-30.4c0.1-15.7-9.6-30.7-23.5-37.8
		c-8.2-4.2-17.4-5.2-26.2-7.6c-21-5.1-42.1-9.9-63.1-15.1C76.5,64.4,70.6,62.3,64.3,61.7 M73.7,125.4c0,4.5-0.5,9.1-0.2,13.6
		c1.5,10.5,7.6,20.4,16.6,26c6.7,4.5,14.8,5.6,22.4,7.4c17,4.3,34.1,8.1,51.1,12.4c7.7,2.5,13.5,9.4,15.2,17.2
		c1-5.1,2.7-10,3.5-15.1c0.4-4.6,0.5-9.2-0.1-13.8c-2.5-12.1-11.6-22.7-23.2-26.9c-5.1-2-10.7-2.5-15.9-4.1
		C120,136.6,96.8,131.1,73.7,125.4z"/>
</g>
<g id="_x23_040101ff">
	<path class="st1" d="M51.6,24.5C70.6,10.8,93.6,2.3,117,1c8.8-1.3,17.7,0.1,26.4,1.1C171,6,196.9,19.9,216,40.1
		c14.2,15.2,24.6,33.8,29.9,53.9c1.8,6.9,2.6,13.9,4.2,20.9v22.3c-1.5,5.8-2.2,11.9-3.6,17.7c-4.9,20.5-15.2,39.7-29.4,55.2
		c-17.9,19.5-42.1,33.3-68.2,38.2c-3.1,0.6-6.2,1.3-9.4,1.8h-33c-6.3-2.6-13.1-3.1-19.5-5.4c-17.8-5.9-34.5-15.5-48-28.6
		c-17.2-16.2-29.6-37.5-35.2-60.5c-1.5-5.9-2.1-11.9-3.7-17.7v-22.2c1.3-7.5,2.5-15.1,4.4-22.6C11.7,65.8,28.7,41.1,51.6,24.5
		 M112.4,20.7c-35.5,4.1-68.1,27.5-83,60c-11.1,23.3-13.1,50.9-5.5,75.6c6.4,21.1,19.6,40.2,37.3,53.5c15.6,12,34.7,19.3,54.2,21
		c9.3,1.6,18.7,0.3,27.9-1.2c21.2-3.6,40.9-14.1,56.2-29.1c19.2-19.4,31.1-46.1,31-73.5c0.9-31.2-13.6-62.2-37.4-82.1
		c-17.8-15.1-40.7-24.1-64-24.7C123.5,19.2,118,20.7,112.4,20.7z"/>
	<path class="st1" d="M64.3,61.7c6.3,0.6,12.3,2.7,18.5,3.9c21,5.2,42.1,10,63.1,15.1c8.8,2.4,18,3.4,26.2,7.6
		c13.9,7.1,23.6,22.1,23.5,37.8c0.5,10.4-4.2,20.2-5.4,30.4c-1.1-0.9-2-2.1-2.3-3.4c-3.2-10.6-11.8-20.1-22.9-22.5
		c-17.5-4.2-35-8.4-52.5-12.5c-10.1-2.8-21-3.9-29.8-9.9c-7.2-5.4-13.7-12.2-16.6-20.9C62.7,79.2,62.8,70.2,64.3,61.7z"/>
	<path class="st1" d="M73.7,125.4c23.2,5.7,46.3,11.2,69.5,16.7c5.2,1.6,10.8,2.1,15.9,4.1c11.6,4.3,20.7,14.8,23.2,26.9
		c0.6,4.6,0.5,9.2,0.1,13.8c-0.8,5.1-2.5,10-3.5,15.1c-1.8-7.8-7.6-14.7-15.2-17.2c-17-4.3-34.1-8.1-51.1-12.4
		c-7.7-1.8-15.8-3-22.4-7.4c-9.1-5.7-15.2-15.5-16.6-26C73.1,134.5,73.7,129.9,73.7,125.4z"/>
</g>
</svg>
